X:1
T:Boehmische Weise
S:Notenmaterial von Michael Kellner
Z:abc transcription Simon Wascher
F:http://simonwascher.info/
M:2/4
L:1/8
K:G
Bc |\\.i
d2 Ac | BB d/c/B | AG AB | A2 Bc |
d2 Ac | BB d/c/B | AG AB | A2 ||
|:d/c/B/A/ |\
GFGA\.i| GD GA | BA Bc | B2 A2 |
GG GD | GF GA | B2 A2 | G2 |]
